build/bank/Gazprombank.svg

<svg xmlns="http://www.w3.org/2000/svg" fill="none" viewBox="0 0 40 40" focusable="false"><defs><linearGradient id="Gazprombank_svg__a" x1="20" x2="20" y1="6" y2="34" gradientUnits="userSpaceOnUse"><stop offset="0" stop-color="#2571EB"/><stop offset="1" stop-color="#0026B2"/></linearGradient></defs><path d="M0 0H40V40H0z"/><path fill="url(#Gazprombank_svg__a)" d="M1 10C1 7.79086 2.79086 6 5 6L35 6C37.2091 6 39 7.79086 39 10L39 30C39 32.2091 37.2091 34 35 34L5 34C2.79086 34 1 32.2091 1 30L1 10Z"/><path fill="#FFF" fill-rule="evenodd" d="M28.001 18.6876C27.8976 18.7761 27.7944 18.8491 27.6919 18.9394C26.9967 19.4688 25.8889 19.8985 24.3688 20.2985C21.2095 21.1536 18.9181 21.2701 16.3185 21.9081C15.8026 22.0399 15.271 22.202 14.785 22.4088C15.271 22.6606 15.8026 22.8815 16.3344 23.089C17.3969 22.7796 17.9011 22.6461 19.4347 22.3951C20.0256 22.2896 21.8274 21.9654 23.1269 21.7022C25.4764 21.1979 28.9168 20.105 28.001 18.6876ZM26.4808 15.7334C25.9765 15.5132 25.3564 15.2903 24.6938 15.1147C24.3962 15.351 24.0588 15.5566 23.5543 15.7508C24.3836 15.8959 25.0039 16.1322 25.7105 16.3255C25.8289 16.385 26.3899 15.8698 26.4808 15.7334ZM14.9759 18.8797C18.048 17.9783 21.2676 17.6988 24.5314 16.8279C23.2614 16.4886 22.5502 16.3397 21.2095 16.503C19.2589 16.7395 17.1027 17.1508 15.2577 17.6985C14.5326 17.9207 10.7382 18.9978 11.8324 20.5037C11.8322 20.5192 12.4798 19.6045 14.9759 18.8797ZM12.8641 24.0473C12.8491 24.329 13.0275 24.5796 13.3968 24.8902C13.4402 24.741 13.5152 24.6248 13.6186 24.4769C13.3665 24.3422 13.115 24.2107 12.8641 24.0473ZM14.2975 23.9165C14.5326 23.7676 14.8122 23.6341 15.1225 23.5165C14.6951 23.3235 14.2375 23.1341 13.7941 22.9266C13.5873 23.0594 13.3966 23.1919 13.249 23.3235C13.6025 23.5312 13.9434 23.7225 14.2975 23.9165ZM26.0948 17.3893C25.4767 17.6845 24.5907 17.9785 23.3204 18.2898C22.272 18.5548 19.7317 18.924 17.0005 19.5141C16.1437 19.7064 13.7944 20.252 12.6425 21.2267C12.9675 21.4948 13.1741 21.5524 13.5285 21.7592C14.001 21.4486 14.6509 21.1537 15.6121 20.9009C17.2788 20.4599 18.5355 20.2685 20.0427 20.0186C21.5335 19.7937 24.353 19.2045 25.9038 18.6424C26.4217 18.4664 26.8933 18.23 27.2322 17.9474C27.1283 17.8313 26.1245 17.344 26.0948 17.3893ZM26.9967 16.8414C27.3058 16.9896 27.5885 17.0932 27.8532 17.2854C28.0442 16.9154 27.9258 16.679 27.5292 16.3399C27.366 16.5329 27.1876 16.6944 26.9967 16.8414ZM12.7172 22.3789C12.4354 22.2328 12.2587 22.1146 12.022 21.9657C11.9036 22.2329 12.1422 22.5259 12.3773 22.6606C12.4798 22.5568 12.614 22.4683 12.7172 22.3789ZM25.7698 13.9045C25.7105 14.1113 25.4915 14.3621 25.3424 14.5255C25.8007 14.6438 26.2731 14.8185 26.7151 14.9819C26.6568 14.5686 26.1842 14.1699 25.7698 13.9045ZM11.3279 16.5156C14.5475 14.4197 18.1071 13.18 24.1314 14.2294C24.4564 14.0361 24.6476 13.8441 24.7382 13.4605C23.2305 12.9147 21.5926 12.7224 19.4817 12.7511C17.5899 12.8106 14.1784 13.5181 12.3493 14.5983L12.9084 13.9043C14.1784 13.1489 17.5005 12.161 19.9976 12.1159C21.7537 12.0728 22.6545 12.1747 24.7522 12.7359C24.5591 12.3841 24.1317 12.2053 23.4964 11.9104C21.4744 11.0089 17.7083 10.9196 14.6227 12.2928C15.0053 12.0275 15.3896 11.7902 15.893 11.572C16.9099 11.0983 18.5798 10.6398 20.6611 10.6841C22.3313 10.7138 24.3101 11.2897 25.5201 12.486C25.7257 12.7359 25.845 12.9868 25.8892 13.18C26.8493 13.6672 27.4094 14.1246 27.7194 14.6561C27.8534 14.9368 27.8978 15.2318 27.8378 15.5711C28.2363 15.8065 28.4296 16.0142 28.6374 16.2823C28.7682 16.5033 28.8715 16.7523 28.9024 16.9773C28.9456 17.2703 28.975 17.6105 28.6649 18.0096C28.9899 18.1729 29.2549 18.6284 29.2867 18.8226C29.4482 19.5433 28.9752 20.2524 28.3708 20.8003C27.6609 21.4192 26.0955 22.1584 24.8252 22.4842C22.3165 23.1177 20.0856 23.3849 18.3153 23.7097C19.1119 23.901 20.1897 24.1536 21.9474 24.1536C25.7112 24.1536 29.0341 22.3797 29.0341 22.3797C29.0341 22.3797 28.9615 22.6034 28.8865 22.8102C26.4942 24.2564 22.7006 24.8608 21.0748 24.7871C19.4355 24.7121 18.0485 24.4623 16.6897 24.0481C16.2758 24.167 15.8624 24.3005 15.4648 24.4623C17.5326 25.4068 19.0969 25.6143 20.8546 25.7461C22.6551 25.8805 25.6396 25.4502 28.1481 24.537C28.03 24.6562 27.9711 24.8321 27.854 24.936C26.5681 25.6143 23.8527 26.294 22.4791 26.3526C21.1191 26.4121 19.4663 26.3526 18.0186 26.0863C16.7782 25.8364 15.758 25.4502 14.6955 24.9802C14.5048 25.1254 14.4163 25.3051 14.3706 25.5116C18.5219 27.6817 22.3892 27.7258 26.8062 26.3526L26.4053 26.7369C21.5473 28.7159 17.7527 27.947 14.813 26.5304C14.7105 26.4853 14.5924 26.4401 14.5048 26.3815C14.7857 26.8552 17.0283 28.4937 19.5388 28.7002C21.2681 28.8482 23.379 28.5523 24.6343 28.0518L23.8968 28.4343C23.29 28.7301 21.6815 29.4106 19.4355 29.2624C16.4385 29.055 14.7539 27.7258 14.0015 27.033C13.6461 26.706 13.4855 26.3381 13.3812 25.8808C12.7018 25.5261 12.2736 25.156 11.9202 24.5948C11.7134 24.2854 11.7568 23.9174 11.8011 23.6049L11.892 23.3418C11.5661 23.1035 11.2261 22.8526 11.0935 22.6037C10.797 22.0714 10.9761 21.6119 11.182 21.2582C11.0036 21.0517 10.8411 20.8449 10.7695 20.6384C10.6811 20.402 10.6661 20.1636 10.6936 19.8994C10.7527 19.4573 10.9901 19.0442 11.3004 18.6886C11.9489 17.9361 12.985 17.345 14.7401 16.7693C16.4694 16.1927 17.1637 16.1034 18.4631 15.8072C19.9834 15.4547 21.7999 15.3373 23.3211 14.8057C19.0812 14.0677 14.6825 14.7462 11.0938 17.2103L11.3279 16.5156Z"/></svg>

<svg xmlns="http://www.w3.org/2000/svg" fill="none" viewBox="0 0 40 40" focusable="false"><path fill="none" d="M0 0h40v40H0z"/><linearGradient id="Gazprombank_svg__a" x1="20" x2="20" y1="6" y2="34" gradientUnits="userSpaceOnUse"><stop stop-color="#2571EB"/><stop offset="1" stop-color="#0026B2"/></linearGradient><path fill="url(#Gazprombank_svg__a)" d="M1 10c0-2.21 1.79-4 4-4h30c2.2 0 4 1.79 4 4v20c0 2.2-1.8 4-4 4H5c-2.21 0-4-1.8-4-4z"/><path fill="#FFF" fill-rule="evenodd" d="M28 18.68c-.11.09-.21.16-.31.25-.7.53-1.81.96-3.33 1.36-3.16.86-5.45.98-8.05 1.61-.51.13-1.04.3-1.53.5.49.26 1.02.48 1.55.68 1.06-.31 1.57-.44 3.1-.69.59-.11 2.39-.43 3.69-.69 2.35-.51 5.79-1.6 4.88-3.02m-1.52-2.95c-.51-.22-1.13-.44-1.79-.62-.3.24-.64.44-1.14.64.83.14 1.45.38 2.16.57.11.06.67-.46.77-.59m-11.51 3.14c3.07-.9 6.29-1.18 9.56-2.05-1.27-.34-1.98-.49-3.33-.32-1.95.23-4.1.65-5.95 1.19-.72.23-4.52 1.3-3.42 2.81 0 .01.64-.9 3.14-1.63m-2.11 5.17c-.02.28.16.53.53.85.05-.15.12-.27.22-.42-.25-.13-.5-.26-.75-.43m1.43-.13c.24-.15.52-.28.83-.4-.43-.19-.89-.38-1.33-.59-.21.13-.4.27-.55.4.36.21.7.4 1.05.59m11.8-6.53c-.62.3-1.5.59-2.77.9-1.05.27-3.59.64-6.32 1.23-.86.19-3.21.74-4.36 1.71.32.27.53.33.88.53.48-.31 1.13-.6 2.09-.85 1.66-.45 2.92-.64 4.43-.89 1.49-.22 4.31-.81 5.86-1.37.52-.18.99-.41 1.33-.7-.11-.11-1.11-.6-1.14-.56m.9-.54c.31.14.59.25.86.44.19-.37.07-.61-.33-.95-.16.2-.34.36-.53.51m-14.28 5.53c-.28-.14-.46-.26-.69-.41-.12.27.12.56.35.7.1-.11.24-.2.34-.29m13.05-8.47c-.05.21-.27.46-.42.62.46.12.93.29 1.37.46-.06-.42-.53-.82-.95-1.08m-14.44 2.61c3.22-2.1 6.78-3.33 12.81-2.29.32-.19.51-.38.6-.76-1.5-.55-3.14-.74-5.25-.71-1.9.06-5.31.76-7.14 1.84l.56-.69c1.27-.76 4.6-1.74 7.09-1.79 1.76-.04 2.66.06 4.76.62-.2-.35-.62-.53-1.26-.82-2.02-.91-5.79-1-8.87.38.38-.27.76-.5 1.27-.72 1.01-.48 2.68-.94 4.77-.89 1.67.03 3.65.6 4.86 1.8.2.25.32.5.36.7.96.48 1.52.94 1.83 1.47.14.28.18.58.12.92.4.23.59.44.8.71.13.22.24.47.27.69.04.3.07.64-.24 1.03.32.17.59.62.62.82.16.72-.31 1.43-.91 1.98-.71.61-2.28 1.35-3.55 1.68-2.51.63-4.74.9-6.51 1.22.8.2 1.87.45 3.63.45 3.77 0 7.09-1.78 7.09-1.78s-.07.23-.15.44c-2.39 1.44-6.18 2.05-7.81 1.97-1.64-.07-3.03-.32-4.39-.74-.41.12-.82.26-1.22.42 2.07.94 3.63 1.15 5.39 1.28 1.8.14 4.78-.29 7.29-1.21-.11.12-.17.3-.29.4-1.29.68-4 1.36-5.38 1.42-1.36.06-3.01 0-4.46-.27-1.24-.25-2.26-.63-3.32-1.1-.19.14-.28.32-.32.53 4.15 2.17 8.01 2.21 12.43.84l-.4.38c-4.86 1.98-8.65 1.21-11.59-.2-.1-.05-.22-.09-.31-.15.28.47 2.52 2.11 5.03 2.32 1.73.14 3.84-.15 5.1-.65l-.74.38c-.6.3-2.21.98-4.46.83-3-.21-4.68-1.54-5.43-2.23-.36-.33-.52-.7-.62-1.15-.68-.36-1.11-.73-1.46-1.29-.21-.31-.17-.68-.12-.99l.09-.26c-.33-.24-.67-.49-.8-.74-.3-.53-.12-.99.09-1.35-.18-.2-.34-.41-.42-.62-.08-.23-.1-.47-.07-.74.06-.44.3-.85.61-1.21.64-.75 1.68-1.34 3.44-1.92 1.72-.57 2.42-.66 3.72-.96 1.52-.35 3.33-.47 4.86-1-4.24-.74-8.64-.06-12.23 2.41z"/></svg>
